assets/img/3m2.svg

<?xml version="1.0"?>
<svg width="94" height="50" xmlns="http://www.w3.org/2000/svg" xmlns:svg="http://www.w3.org/2000/svg">
 <g class="layer">
  <title>Layer 1</title>
  <path d="m73.9,1.11l-6.72,27.95l-6.75,-27.95l-19.48,0l0,10.32c-2.37,-9.03 -11.06,-11.3 -18.82,-11.43c-9.46,-0.12 -19.95,4.07 -20.31,16.85l13.09,0c0,-3.86 3.46,-6.07 6.72,-6.01c4.01,-0.04 5.86,1.71 5.95,4.43c-0.14,2.37 -1.5,4.01 -5.91,4.01l-4.41,0l0,9.28l4,0c2.27,0 5.43,1.26 5.55,4.56c0.15,3.94 -2.52,5.67 -5.82,5.7c-5.89,-0.22 -7.41,-4.84 -7.41,-8.81l-13.58,0c0.06,2.67 -0.03,20.12 21.26,19.99c10.2,0.09 17.62,-4.29 19.72,-10.33l0,9.26l13.1,0l0,-30.16l7.25,30.16l11.7,0l7.27,-30.13l0,30.16l13.37,0l0,-47.85l-19.77,0zm-32.91,27.89c-1.67,-3.53 -4.02,-5.07 -5.34,-5.56c2.77,-1.26 4.23,-2.97 5.34,-6.37l0,11.93z" fill="#ffffff" id="svg_1"/>
 </g>
</svg>

<svg xmlns="http://www.w3.org/2000/svg" width="94" height="50"><g class="layer"><path fill="#fff" d="m73.9 1.11-6.72 27.95-6.75-27.95H40.95v10.32C38.58 2.4 29.89.13 22.13 0 12.67-.12 2.18 4.07 1.82 16.85h13.09c0-3.86 3.46-6.07 6.72-6.01 4.01-.04 5.86 1.71 5.95 4.43-.14 2.37-1.5 4.01-5.91 4.01h-4.41v9.28h4c2.27 0 5.43 1.26 5.55 4.56.15 3.94-2.52 5.67-5.82 5.7-5.89-.22-7.41-4.84-7.41-8.81H0C.06 32.68-.03 50.13 21.26 50c10.2.09 17.62-4.29 19.72-10.33v9.26h13.1V18.77l7.25 30.16h11.7L80.3 18.8v30.16h13.37V1.11H73.9zM40.99 29c-1.67-3.53-4.02-5.07-5.34-5.56 2.77-1.26 4.23-2.97 5.34-6.37V29z"/></g></svg>
